X: 8315
T: Corriga Grove
R: reel
M: 4/4
K: Dmajor
~A3B AFdB|BAFA B~E3|F~A3 BdAB|dBAG F~D3|
~A3B AFdB|BAFA B~E3|F~A3 BdAB|dBAG FDDc||
d2fd Adfd|d2ef gfef|d2fd Adfd|(3BcdAG FDD2|
d2fd Adfd|d2ef gfeg|ffef d2BA|(3BcdAG FDD2||

